static/images/stroke-hyperverge.svg

<svg width="75" height="178" viewBox="0 0 75 178" fill="none" xmlns="http://www.w3.org/2000/svg">
<path d="M56.6645 73.1209C55.9488 72.8524 54.4076 73.4681 53.9611 74.7939C53.6088 75.8407 52.1384 76.5073 52.1932 77.7468C51.1462 79.5113 49.8122 81.1801 49.2901 83.1191C49.0969 83.238 49.0212 83.3915 49.0649 83.5797C46.4399 87.5435 43.5804 91.4153 41.7206 95.6785C41.5664 96.5527 40.255 97.278 40.962 98.2625C40.8829 98.7027 39.4616 98.6383 40.2817 99.4162C36.7047 103.709 34.985 108.643 32.5643 113.335C30.8993 115.139 29.6392 117.06 29.6328 119.344C27.9718 120.858 26.9892 122.563 27.1204 124.582C26.6368 124.883 25.9014 124.872 25.7029 125.528C25.1084 127.411 23.1567 128.913 23.1042 130.95C22.5139 132.169 20.5549 133.148 21.7959 134.687C21.4806 135.372 19.9629 136.277 21.0092 136.654C22.2919 137.117 22.1385 135.566 22.596 134.879C24.042 133.787 23.6055 132.415 23.7848 131.134C24.2367 130.125 26.6877 130.242 25.8793 128.522C28.2442 126.512 29.0675 123.931 30.037 121.404C30.3168 120.825 30.5969 120.245 30.877 119.666C32.1663 118.256 32.7115 116.607 33.3469 114.986C36.0753 114.214 35.4179 111.933 36.3172 110.385C38.658 106.354 41.8275 102.616 43.2689 98.2628C45.3207 97.4818 43.7247 96.5127 43.789 95.6288C44.6869 95.3813 45.274 94.912 45.3158 94.0516C46.6139 93.0959 47.5478 92.0241 47.1597 90.5302C47.4098 89.2314 49.6524 88.5346 48.9742 86.9545C50.1305 86.3573 50.47 85.555 50.0363 84.5577C50.4121 84.0139 50.7875 83.4709 51.163 82.9278C52.9579 82.4577 52.3986 80.9931 53.0272 80.0305C53.2735 79.6573 53.5205 79.2844 53.7667 78.9113C55.2431 78.0284 55.4448 76.5704 56.1137 75.3413C56.506 74.6223 58.0966 73.6581 56.6645 73.1209Z" fill="#FC5B70"/>
<path d="M47.5957 66.3804C47.1546 65.6655 47.4342 64.3215 46.2067 64.3379C44.71 64.3584 45.2336 65.679 44.875 66.435C44.4584 67.3123 44.0338 68.1872 43.6118 69.0637C42.9313 70.2462 42.2507 71.4287 41.5709 72.6114C41.5785 73.0126 41.5862 73.4138 41.5938 73.815C39.2774 76.2175 38.789 79.277 36.9595 81.8546C34.894 82.5452 36.9626 84.2329 35.5559 85.082C33.459 87.6308 31.5772 90.233 31.8769 93.3776C31.8787 93.3773 31.8805 93.3771 31.8822 93.3769C31.8908 93.378 31.9453 93.3966 31.9453 93.3966C29.1509 94.2769 29.7847 96.9675 28.0751 98.4217C27.567 100.012 24.9269 101.078 25.9803 103.035C27.6005 102.28 27.9804 100.235 30.1323 100.017C30.5771 99.9728 31.0679 99.4537 30.6491 99.1094C30.3373 98.8535 29.6802 98.9146 29.1766 98.8346C29.7876 97.3453 32.5227 96.9591 32.1321 94.9497C33.1806 94.6907 33.2806 93.9176 33.5012 93.2097C33.4142 91.9459 36.4813 91.2234 34.7359 89.6753C35.7899 89.1365 36.8481 88.5991 36.4575 87.3405C36.6572 86.9523 36.8562 86.5639 37.056 86.1758C38.0918 85.1288 37.7671 83.2628 39.882 82.8647C39.741 82.5304 39.6 82.1961 39.4583 81.8615C40.0797 81.5318 41.0242 81.4061 40.6848 80.4722C41.3854 78.6337 43.129 76.988 42.7036 74.9424C42.8178 74.7431 42.9319 74.5439 43.0453 74.3444C43.5343 73.3568 44.024 72.3695 44.513 71.382C45.531 70.5716 45.6146 69.4494 46.1054 68.4631C47.2581 68.0898 48.4925 67.8336 47.5957 66.3804Z" fill="#FC5B70"/>
<path d="M68.3617 112.031C68.9949 111.473 69.2006 110.837 69.0779 110.138C69.5043 109.334 70.7596 108.613 69.8793 107.675C69.5409 107.314 69.0069 107.678 68.5853 107.919C67.2307 108.692 68.1654 109.343 68.4472 110.03C67.6716 110.691 64.4433 109.816 66.4543 112.222C64.3864 113.448 65.9733 115.688 64.1103 116.972C63.2362 118.101 62.3445 119.229 63.575 120.613C63.7145 119.112 65.061 118.111 65.6181 116.809C66.2707 115.126 68.2887 113.912 68.3617 112.031Z" fill="#FC5B70"/>
<path d="M61.8057 122.295C59.5812 122.031 59.8747 124.785 58.823 126.146C58.1227 127.012 57.7207 127.881 58.3364 128.951C59.64 128.344 59.884 127.431 60.1904 126.551C60.6969 125.03 62.9096 122.426 61.8057 122.295Z" fill="#FC5B70"/>
<path d="M21.1131 136.99C18.7313 138.505 18.9679 140.602 17.5623 141.936C17.0374 142.951 16.0772 143.972 17.3481 145.087C18.0848 144.176 18.7913 143.352 18.4244 142.265C19.8222 140.833 20.9265 139.322 21.1131 136.99Z" fill="#FC5B70"/>
<path d="M1.01027 150.751C2.20047 148.855 2.34636 148.293 2.16561 147.148C1.62102 148.43 0.716922 149.491 1.01027 150.751Z" fill="#FC5B70"/>
<path d="M23.9271 107.34C23.8243 107.202 22.6478 107.48 22.4572 108.089C22.2543 108.74 22.072 109.541 22.7674 109.919C22.9846 110.036 23.8099 109.444 24.4624 109.125C24.2927 108.447 24.2729 107.8 23.9271 107.34Z" fill="#FC5B70"/>
<path d="M54.7173 131.954C54.806 133.043 55.4088 133.504 56.2605 133.666C56.3668 133.686 57.1902 132.681 57.0659 132.371C56.7364 131.548 55.6487 132.009 54.7173 131.954Z" fill="#FC5B70"/>
<path d="M14.898 120.479C15.5358 122.298 13.5974 123.08 14.5892 124.494C15.3799 123.282 16.5243 122.411 14.898 120.479Z" fill="#FC5B70"/>
<path d="M71.152 104.783C73.3554 104.488 73.4928 103.286 74.0386 102.365C73.5919 102.188 73.1456 102.011 72.6993 101.835C72.2211 102.746 71.743 103.657 71.152 104.783Z" fill="#FC5B70"/>
<path d="M75.9972 96.8388C73.6659 97.0479 75.652 98.5245 74.8024 99.169C74.0578 100.089 73.3132 101.01 72.569 101.929C73.002 102.104 73.4346 102.279 73.8684 102.453C74.8294 100.846 76.4816 99.4765 76.6735 97.6021C77.2751 96.5839 77.9667 95.5884 78.452 94.5404C78.9091 93.552 78.177 93.6553 77.4449 93.864C77.2744 94.9401 77.1764 96.0353 75.9972 96.8388Z" fill="#FC5B70"/>
<path d="M19.841 114.163C19.22 113.879 18.657 114.062 18.2805 114.66C18.0709 115.129 18.18 115.567 18.7465 115.606C19.3672 115.649 20.0565 115.419 20.283 114.817C20.3536 114.63 20.0825 114.274 19.841 114.163Z" fill="#FC5B70"/>
<path d="M54.9059 135.199C53.8736 135.35 53.17 135.665 53.1167 136.56C52.2076 137.396 50.4818 138.42 51.7905 139.308C52.6958 139.922 53.3603 138.305 54.027 137.588C55.3623 136.943 54.1697 135.962 54.9059 135.199Z" fill="#FC5B70"/>
<path d="M49.678 142.912C47.408 143.629 47.8046 145.555 46.9133 146.898C46.1137 148.377 44.5877 149.791 45.8092 151.986C46.6605 150.315 47.2817 149.096 47.9029 147.876C48.6106 146.492 49.318 145.108 50.0264 143.724C50.5455 142.625 51.6246 141.636 51.4826 140.299C49.8656 140.846 50.2564 142.079 49.678 142.912Z" fill="#FC5B70"/>
<path d="M8.56845 135.412C8.13849 135.112 7.48736 135.346 7.29965 135.717C7.12497 136.063 7.3581 136.517 7.41176 136.923C7.8235 136.749 8.23637 136.574 8.71788 136.37C9.38117 135.962 8.86726 135.621 8.56845 135.412Z" fill="#FC5B70"/>
<path d="M84.7607 26.2287C84.0509 25.8665 82.93 26.2864 82.7857 27.4186C81.4201 28.5392 80.5715 29.8952 80.0378 31.3949C78.9588 32.3866 77.7121 33.2939 77.531 34.7399C77.3377 34.852 77.2161 35.003 77.1657 35.1943C75.7231 35.9761 75.303 37.0682 75.5442 38.3607C75.3836 38.5493 75.3756 38.7291 75.5187 38.898C74.9611 39.4214 74.4028 39.9446 73.8451 40.4681C72.5405 41.9439 71.4047 43.4741 71.2562 45.3214C70.9354 45.9341 69.3197 45.5826 69.7801 46.7777C69.248 48.4236 66.9904 49.585 67.4846 51.5187C66.3258 53.2173 64.3075 54.5809 64.2838 56.7221C63.0164 57.6506 62.2798 58.7677 62.3079 60.1573C61.5489 60.8268 60.5131 61.3496 60.5351 62.4345C60.4104 62.5982 60.3504 62.7723 60.3519 62.9579C59.8259 63.5765 59.4609 64.2139 59.8091 64.9299C58.3405 66.3254 57.0533 67.7784 57.2946 69.7122C56.6834 70.6461 55.5542 71.468 55.9074 72.8776C57.6117 72.2098 58.9762 71.6459 58.9595 69.9797C59.5618 68.3875 61.7021 67.2343 61.2327 65.3368C61.7441 64.8094 62.2552 64.2826 62.7673 63.7554C62.9527 63.3572 63.1381 62.9589 63.3243 62.5609C63.5663 61.7198 64.8183 61.1973 64.566 60.2004C65.1069 59.423 65.4774 58.6303 65.2264 57.7818C68.9315 57.0557 67.8652 53.8896 69.5002 52.1053C69.7657 51.5065 70.032 50.9079 70.2979 50.3084C71.1138 49.7417 70.9976 49.1703 70.5351 48.5976C73.0684 48.236 72.3426 46.2784 73.1204 45.0568C74.6286 44.7871 74.2668 43.5419 74.8565 42.7928C75.5753 41.8715 76.2947 40.9503 77.0142 40.0292C77.3572 39.2433 77.7009 38.4577 78.0446 37.6721C78.3823 37.0622 78.72 36.4524 79.0577 35.8425C79.2483 35.3996 80.6595 35.5539 79.9226 34.6576C80.6858 34.0243 81.4157 33.381 81.0473 32.4146C82.8656 31.2187 83.1771 29.3762 84.0989 27.7955C84.1842 27.2124 85.8076 26.7633 84.7607 26.2287Z" fill="#FC5B70"/>
<path d="M9.1876 133.352C9.80748 133.476 9.88594 132.955 10.1757 132.533C10.1391 132.365 10.0877 132.128 10.0356 131.891C9.66793 132.14 9.22293 132.35 8.96444 132.657C8.84581 132.8 9.01756 133.317 9.1876 133.352Z" fill="#FC5B70"/>
<path d="M13.4918 125.045C13.0989 125.479 12.7542 125.709 12.709 125.949C12.6619 126.201 12.8103 126.561 13.0375 126.698C13.354 126.889 13.8083 126.689 13.8305 126.343C13.8555 125.969 13.6518 125.607 13.4918 125.045Z" fill="#FC5B70"/>
</svg>

<svg xmlns="http://www.w3.org/2000/svg" width="75" height="178" fill="none" viewBox="0 0 75 178"><path fill="#fc5b70" d="M56.7 73.1c-.8-.2-2.3.4-2.7 1.7-.4 1-1.9 1.7-1.8 3-1 1.7-2.4 3.4-3 5.3q-.2.2-.1.5c-2.7 4-5.5 7.8-7.4 12-.1 1-1.4 1.7-.7 2.7-.1.4-1.5.3-.7 1.1-3.6 4.3-5.3 9.2-7.7 14-1.7 1.7-3 3.7-3 6q-2.5 2.2-2.5 5.2c-.5.3-1.2.3-1.4 1-.6 1.8-2.5 3.3-2.6 5.3-.6 1.3-2.5 2.2-1.3 3.8-.3.7-1.8 1.6-.8 2 1.3.4 1.1-1.1 1.6-1.8 1.4-1.1 1-2.5 1.2-3.8.4-1 2.9-.9 2-2.6 2.4-2 3.3-4.6 4.2-7.1l.9-1.7c1.3-1.4 1.8-3 2.4-4.7 2.8-.8 2.1-3 3-4.6 2.4-4 5.5-7.8 7-12.1 2-.8.4-1.8.5-2.7q1.4-.3 1.5-1.5c1.3-1 2.2-2 1.9-3.6.2-1.3 2.5-2 1.8-3.5q1.7-.9 1-2.4l1.2-1.7c1.8-.4 1.2-2 1.8-2.9l.8-1c1.4-1 1.6-2.4 2.3-3.7.4-.7 2-1.6.6-2.2m-9.1-6.7c-.4-.7-.2-2-1.4-2-1.5 0-1 1.3-1.3 2l-1.3 2.7-2 3.5v1.2c-2.3 2.4-2.8 5.5-4.6 8-2.1.7 0 2.4-1.4 3.3-2.1 2.5-4 5.1-3.7 8.3-2.7.9-2.1 3.6-3.8 5-.5 1.6-3.2 2.7-2.1 4.6 1.6-.7 2-2.8 4.1-3 .5 0 1-.5.5-.9l-1.4-.3c.6-1.5 3.3-1.8 3-3.9 1-.2 1-1 1.3-1.7 0-1.3 3-2 1.2-3.5 1-.6 2.1-1.1 1.8-2.4l.6-1.1c1-1 .7-3 2.8-3.3l-.4-1c.6-.4 1.5-.5 1.2-1.4.7-1.9 2.4-3.5 2-5.6l.3-.6 1.5-3c1-.7 1.1-1.9 1.6-2.8 1.2-.4 2.4-.7 1.5-2.1M68.4 112q.9-.8.7-1.9c.4-.8 1.7-1.5.8-2.4-.4-.4-.9 0-1.3.2-1.4.8-.4 1.4-.2 2.1-.7.7-4-.2-2 2.2-2 1.2-.4 3.5-2.3 4.8-.9 1.1-1.8 2.2-.5 3.6.1-1.5 1.5-2.5 2-3.8.7-1.7 2.7-2.9 2.8-4.8m-6.6 10.3c-2.2-.3-2 2.5-3 3.8q-1.2 1.4-.5 2.9c1.3-.7 1.6-1.6 1.9-2.4.5-1.6 2.7-4.2 1.6-4.3M21.1 137c-2.4 1.5-2.1 3.6-3.5 5-.6 1-1.5 2-.3 3 .8-.8 1.5-1.6 1.1-2.7 1.4-1.5 2.5-3 2.7-5.3M1 150.8c1.2-2 1.3-2.5 1.2-3.7-.6 1.3-1.5 2.4-1.2 3.7m23-43.5c-.2-.1-1.4.2-1.5.8s-.4 1.4.3 1.8c.2.1 1-.5 1.7-.8q-.1-1-.6-1.8M54.7 132q.2 1.4 1.6 1.7s.9-1 .8-1.3c-.4-.9-1.5-.4-2.4-.4m-39.8-11.5c.6 1.8-1.3 2.6-.3 4 .8-1.2 2-2 .3-4m56.3-15.7c2.2-.3 2.3-1.5 2.8-2.4l-1.3-.6z"/><path fill="#fc5b70" d="M76 96.8c-2.3.2-.3 1.7-1.2 2.4l-2.2 2.7 1.3.6c1-1.7 2.6-3 2.8-4.9l1.8-3c.4-1-.3-1-1-.7-.2 1-.3 2.1-1.5 3m-56.2 17.3q-.9-.4-1.5.5-.3.7.4 1 1.2 0 1.6-.9 0-.4-.5-.6m35.2 21q-1.7.2-1.9 1.4c-.9.8-2.6 1.8-1.3 2.7.9.6 1.6-1 2.2-1.7 1.4-.7.2-1.6 1-2.4m-5.3 7.8c-2.3.6-1.9 2.6-2.8 3.9-.8 1.5-2.3 2.9-1 5l2-4 2.1-4.2c.5-1 1.6-2 1.5-3.4-1.6.5-1.2 1.8-1.8 2.6m-41.1-7.5q-.9-.3-1.3.3-.2.6.1 1.2l1.3-.5c.7-.4.2-.8-.1-1M84.8 26.2c-.7-.3-1.9 0-2 1.2a9 9 0 0 0-2.8 4c-1 1-2.3 1.9-2.5 3.3q-.3.3-.3.5-2.1 1.2-1.7 3.2v.5l-1.7 1.6c-1.3 1.4-2.4 3-2.5 4.8-.4.6-2 .3-1.5 1.5-.6 1.6-2.8 2.8-2.3 4.7-1.2 1.7-3.2 3-3.2 5.2q-2 1.4-2 3.5c-.8.6-1.8 1.1-1.8 2.2l-.1.6q-1 .9-.6 2c-1.5 1.3-2.7 2.8-2.5 4.7-.6 1-1.7 1.8-1.4 3.2 1.7-.7 3-1.3 3-3 .7-1.5 2.8-2.7 2.3-4.6l1.6-1.5.5-1.2c.3-.9 1.5-1.4 1.3-2.4q.9-1.2.6-2.4c3.7-.7 2.7-4 4.3-5.7l.8-1.8q1-.8.2-1.7c2.6-.4 1.8-2.3 2.6-3.5 1.5-.3 1.2-1.6 1.8-2.3L77 40l1-2.3 1-1.9c.2-.4 1.7-.2 1-1.1.7-.7 1.4-1.3 1-2.3 1.9-1.2 2.2-3 3.1-4.6 0-.6 1.7-1 .7-1.6M9.2 133.4q.7 0 1-.9l-.2-.6q-.6.3-1 .8-.2.3.2.7m4.3-8.4-.8 1q0 .4.3.7.7.3.8-.4z"/></svg>
